logos/lysator.svg

<svg viewBox="54 0 534 534" fill="#ff0" xmlns="http://www.w3.org/2000/svg" xmlns:xlink="http://www.w3.org/1999/xlink">
 <defs>
  <path id="l" d="M122 338A211 211 0 0 1 400 70"/>
  <path id="u" d="M197 485A250 250 0 0 0 569 235"/>
 </defs>
 <circle r="267" cy="267" cx="321" fill="#000"/>
 <path d="m154.86 436.48c-.734 0 0-11.014 0-11.014s18.357-2.203 24.965-9.546c6.607-7.342 10.279-16.494 10.279-26.801v-144.28-94.352c0-16.522 3.304-23.496 15.053-34.51 11.748-11.014 27.167-15.053 40.384-15.053h117.85 139.14v11.382s-15.052 1.101-22.395 7.708c-7.342 6.608-15.419 15.419-15.419 31.573v138.04 95.822c0 12.481.733 20.926-8.812 31.206-9.545 10.279-24.965 19.825-37.447 19.825s-113.81 0-127.76 0h-135.82z"/>
 <path d="m466.19 114.88h-135.1c-23.646 0-40.017 14.684-40.017 40.383v120.79c0 17.623.123 28.758-7.709 38.548-5.874 7.344-6.606 8.812-6.606 8.812s111.61 0 132.17 0c20.56 0 41.852-13.584 41.852-38.549v-128.86c0-33.64 15.42-41.12 15.42-41.12z" fill="#000"/>
 <path d="m352.39 273.84c-18.467-4.08-26.083-31.086-17.009-60.324 9.075-29.237 31.404-49.631 49.873-45.553 18.467 4.076 26.083 31.086 17.009 60.323-9.07 29.23-31.4 49.62-49.87 45.55z"/>
 <path d="m352.88 257.23c-8.679-5.213-8.752-25.975-.163-46.371s22.589-32.703 31.267-27.492c8.681 5.212 8.751 25.975.163 46.372-8.59 20.4-22.59 32.71-31.27 27.49z" fill="#000"/>
 <path d="m302.45 226.12c-4.406 0-4.772-2.569-1.102-4.771 3.672-2.204 6.242-3.672 2.938-4.773-3.305-1.101.734-3.671.734-3.671s17.99-.367 24.965-.367c7.171 0 77.563-1.468 84.807-1.468 6.243 0 24.965.367 24.965.367s2.204-.734 2.204 2.57c0 3.303-5.508 2.936-3.305 5.506 2.202 2.569-2.203 5.14-2.203 5.14"/>
 <path d="m436.45 224.65c-5.874 0-105 1.468-110.87 1.468"/>
 <path d="m378.81 292.2v-163.01s-1.102-2.57-4.039-1.835c-2.938.734-2.241-2.031-5.874-2.938-2.937-.734-4.773 3.305-4.773 3.305 0 6.617 1.103 151.26.735 159.7-.366 8.443.366 21.293.366 21.293s2.57.734 3.671-1.834c1.104-2.57 1.47-.735 3.305 2.201 1.836 2.938 2.202 4.039 4.038 2.938 1.836-1.102 2.569 0 2.569 0s0-15.421 0-19.826"/>
 <text font-family="Helvetica" font-weight="Bold" font-size="50.23">
  <textPath xlink:href="#l" letter-spacing="26">LINKÖPING</textPath>
  <textPath xlink:href="#u" letter-spacing="30">UNIVERSITY</textPath>
 </text>
 <g fill="#000">
  <path id="L" d="M216 130h11v49h39v11h-50"/>
  <path id="Y" d="M216 203h11l14 24 14-24h11l-19.5 33.775v26.225h-11v-26.225z"/>
  <path id="S" d="m265.37 293.67s.736-4.549-1.469-8.077c-5.813-9.301-14.869-8.812-22.578-8.812-6.011 0-14.318.736-19.092 5.324-3.287 3.161-4.59 8.078-4.59 12.3s.918 9.546 4.223 12.85c4.283 4.284 7.342 5.322 13.399 5.506 4.587.139 8.429 0 12.483 0 4.467 0 6.608 3.149 6.608 7.525 0 3.307-3 6.06-6.608 6.06h-14.686c-4.994 0-6.241-7.344-6.241-7.344h-9.729s-.546 6.472.917 8.811c2.375 3.801 4.038 6.793 7.894 8.445 5.075 2.176 8.443 2.202 14.318 2.202s14.869.183 18.907-3.122c4.039-3.304 6.425-6.974 7.342-11.562.917-4.59.421-11.018-2.57-15.604-2.434-3.732-7.75-6.793-12.115-6.793h-15.786c-3.304 0-7.343-2.568-7.343-6.975s3.426-6.608 7.158-6.608c5.141 0 10.096-.183 14.502 0 7.087.295 6.608 5.874 6.608 5.874l8.45-.01z"/>
  <path id="A" d="m216 374c0-5 1-14 6-19 6-6 12-6 21-6 7 0 13 0 19 6 4 5 4 12 4 19v35h-11v-24h-28v24h-11m11-35h28s0-13-5-14c-1-2-14-3-19 1-5 5-5 13-4 13"/>
  <path id="T" d="M292.5 360h-19.5v-11h50v11h-19.5v49h-11"/>
  <path id="O" d="M378 363c0-6.976-6.977-13.217-14.686-13.217s-9.913-.184-17.256-.184-16.153 6.058-16.153 14.135v29.371c0 8.443 6.608 16.521 15.42 16.521s11.007.22 17.622 0c11.014-.368 15.053-8.078 15.418-16.154.37-8.09-.36-23.51-.36-30.48zm-9.55 27.9c0 6.767-1.921 8.566-8.812 8.812-3.55.126-5.549 0-10.279 0-6.688 0-8.994-2.547-8.994-9.362v-22.396c0-4.645 3.217-7.894 7.159-7.894h13.95c4.14 0 6.977 3.329 6.977 7.343-.01 4.02-.01 18.85-.01 23.5z"/>
  <path id="R" d="m391 349h37s13 7 13 16c0 10-3 12-8 16s-6 0-3 7c3 6 11 21 11 21h-11c0 1-11-21-14-23-1-2-14-1-14-1v24h-11m11-49v14h21c5-1 6-3 7-7-1-5-2-7-7-7"/>
 </g>
</svg>

<svg viewBox="54 0 534 534" fill="#ff0" xmlns="http://www.w3.org/2000/svg" xmlns:xlink="http://www.w3.org/1999/xlink">
 <defs>
  <path id="l" d="M122 338A211 211 0 0 1 400 70"/>
  <path id="u" d="M197 485A250 250 0 0 0 569 235"/>
 </defs>
 <circle r="267" cy="267" cx="321" fill="#000"/>
 <path d="m154.86 436.48c-.734 0 0-11.014 0-11.014s18.357-2.203 24.965-9.546c6.607-7.342 10.279-16.494 10.279-26.801v-144.28-94.352c0-16.522 3.304-23.496 15.053-34.51 11.748-11.014 27.167-15.053 40.384-15.053h117.85 139.14v11.382s-15.052 1.101-22.395 7.708c-7.342 6.608-15.419 15.419-15.419 31.573v138.04 95.822c0 12.481.733 20.926-8.812 31.206-9.545 10.279-24.965 19.825-37.447 19.825s-113.81 0-127.76 0h-135.82z"/>
 <path d="m466.19 114.88h-135.1c-23.646 0-40.017 14.684-40.017 40.383v120.79c0 17.623.123 28.758-7.709 38.548-5.874 7.344-6.606 8.812-6.606 8.812s111.61 0 132.17 0c20.56 0 41.852-13.584 41.852-38.549v-128.86c0-33.64 15.42-41.12 15.42-41.12z" fill="#000"/>
 <path d="m352.39 273.84c-18.467-4.08-26.083-31.086-17.009-60.324 9.075-29.237 31.404-49.631 49.873-45.553 18.467 4.076 26.083 31.086 17.009 60.323-9.07 29.23-31.4 49.62-49.87 45.55z"/>
 <path d="m352.88 257.23c-8.679-5.213-8.752-25.975-.163-46.371s22.589-32.703 31.267-27.492c8.681 5.212 8.751 25.975.163 46.372-8.59 20.4-22.59 32.71-31.27 27.49z" fill="#000"/>
 <path d="m302.45 226.12c-4.406 0-4.772-2.569-1.102-4.771 3.672-2.204 6.242-3.672 2.938-4.773-3.305-1.101.734-3.671.734-3.671s17.99-.367 24.965-.367c7.171 0 77.563-1.468 84.807-1.468 6.243 0 24.965.367 24.965.367s2.204-.734 2.204 2.57c0 3.303-5.508 2.936-3.305 5.506 2.202 2.569-2.203 5.14-2.203 5.14"/>
 <path d="m436.45 224.65c-5.874 0-105 1.468-110.87 1.468"/>
 <path d="m378.81 292.2v-163.01s-1.102-2.57-4.039-1.835c-2.938.734-2.241-2.031-5.874-2.938-2.937-.734-4.773 3.305-4.773 3.305 0 6.617 1.103 151.26.735 159.7-.366 8.443.366 21.293.366 21.293s2.57.734 3.671-1.834c1.104-2.57 1.47-.735 3.305 2.201 1.836 2.938 2.202 4.039 4.038 2.938 1.836-1.102 2.569 0 2.569 0s0-15.421 0-19.826"/>
 <text font-family="Helvetica" font-weight="Bold" font-size="50.23">
  <textPath xlink:href="#l" letter-spacing="26">LINKÖPING</textPath>
  <textPath xlink:href="#u" letter-spacing="30">UNIVERSITY</textPath>
 </text>
 <g fill="#000">
  <path id="L" d="M216 130h11v49h39v11h-50"/>
  <path id="Y" d="M216 203h11l14 24 14-24h11l-19.5 33.775v26.225h-11v-26.225z"/>
  <path id="S" d="m265.37 293.67s.736-4.549-1.469-8.077c-5.813-9.301-14.869-8.812-22.578-8.812-6.011 0-14.318.736-19.092 5.324-3.287 3.161-4.59 8.078-4.59 12.3s.918 9.546 4.223 12.85c4.283 4.284 7.342 5.322 13.399 5.506 4.587.139 8.429 0 12.483 0 4.467 0 6.608 3.149 6.608 7.525 0 3.307-3 6.06-6.608 6.06h-14.686c-4.994 0-6.241-7.344-6.241-7.344h-9.729s-.546 6.472.917 8.811c2.375 3.801 4.038 6.793 7.894 8.445 5.075 2.176 8.443 2.202 14.318 2.202s14.869.183 18.907-3.122c4.039-3.304 6.425-6.974 7.342-11.562.917-4.59.421-11.018-2.57-15.604-2.434-3.732-7.75-6.793-12.115-6.793h-15.786c-3.304 0-7.343-2.568-7.343-6.975s3.426-6.608 7.158-6.608c5.141 0 10.096-.183 14.502 0 7.087.295 6.608 5.874 6.608 5.874l8.45-.01z"/>
  <path id="A" d="
M 216 374
C 216 369 217 360 222 355
C 228 349 234 349 243 349
C 250 349 256 349 262 355
C 266 360 266 367 266 374
V 409
h -11
V 385
H 227
V 409
h -11
M 227 374
H 255
S 255 361 250 360
C 249 358 236 357 231 361
C 226 366 226 374 227 374
"/>
  <path id="T" d="M292.5 360h-19.5v-11h50v11h-19.5v49h-11"/>
  <path id="O" d="M378 363c0-6.976-6.977-13.217-14.686-13.217s-9.913-.184-17.256-.184-16.153 6.058-16.153 14.135v29.371c0 8.443 6.608 16.521 15.42 16.521s11.007.22 17.622 0c11.014-.368 15.053-8.078 15.418-16.154.37-8.09-.36-23.51-.36-30.48zm-9.55 27.9c0 6.767-1.921 8.566-8.812 8.812-3.55.126-5.549 0-10.279 0-6.688 0-8.994-2.547-8.994-9.362v-22.396c0-4.645 3.217-7.894 7.159-7.894h13.95c4.14 0 6.977 3.329 6.977 7.343-.01 4.02-.01 18.85-.01 23.5z"/>
  <path id="R" d="
M 391 349
C 391 349 421 349 428 349
S 441 356 441 365
C 441 375 438 377 433 381
S 427 381 430 388
C 433 394 441 409 441 409
h -11
C 430 410 419 388 416 386
C 415 384 402 385 402 385
V 409
h -11
M 402 360
V 374
H 423
C 428 373 429 371 430 367
C 429 362 428 360 423 360"/>
 </g>
</svg>
